X:1545
T:Blackberry Quadrille
R:jig
M:6/8
L:1/8
K:D
f/g/|a2a ba^g|a2f d2f|e2c A3/2f/g|fdB A3/2f/g|
a2a ba^g|a2f d2f|e2c ABc|d3 d2:|
|:F/G/|A2B G2A|F2A def|g2e c2e|dfe dcB|
A2B G2A|F2A def|g2e ABc|d3 d2:|


